!!!SOCIAL_FUNCTION:	unclassified songs
!!!PDT:	1909
!!!OTL: No_189_Song_of_Thanks_for_a_Gift.krn
!!!REG: Great_Lakes
!!!LANG: Non-Tone
!!!LING_GROUP: Algonquin
**kern
*staff1
=1-
*clefF4
*k[]
*M2/4
4e\
4e\
=2
4e\
4e\
=3||
*M3/4
4c\
4.c\
16e\LL
16d\JJ
=4||
*M2/4
2c\
=5
[2c\
=6
2c\]
=7!|:
4e\
4e\
=8
4e\
12d\L
12e\
12d\J
=9
4c\
4c\
=10
[4c\
8.c\L]
16A\Jk
=11
[2G\
=12
2G\]
=13
*k[b-e-a-]
4c\
4c\
=14
4B-\
4B-\
=15
4G\
4G\
=16
2F\
=17
4F\
4F\
=18
4G\
4F\
=19
4F\
8E-\L
8F\J
=20
2E-\
=21
4.C/
8C/
=22
2C/
==:|!
*-
